!!!!SEGMENT: pl-cz--d-ii-43--008_elsner-jozef--msza-pasterska-agnus.krn
!!!cenid: 18xx:204
!!!COM: Elsner, Józef
!!!COM-rismid: pe30000957
!!!CDT: 1769/06/01-1854/04/18
!!!CNT: Polish
!!!OPR: Msza pasterska
!!!OTL: Agnus
!!!OMV: 008
!!!OMD: AGNUS.
!!!OMD: Andantino.
!!!PDT: 1843
!!!AGN: Sacred; Mass
!!!SMS-siglum: PL-CZ
!!!SMS-shelfmark: D II-43
!!!SMS-shelfwork: 001-008 M
!!!NIFC-rismid:
!!!URL-scan: http://repozytorium.nifc.pl/skany/pl-cz-nut--dii-43
!!!ONB-nifc: UWAGA: części Mszy: Kyrie, Gloria, Graduale, Credo, Offertorium, Sanctus, Benedictus, Agnus
**kern	**kern	**dynam	**kern	**dynam	**kern	**text	**text	**dynam	**kern	**text	**text	**dynam	**kern	**text	**text	**dynam	**kern	**text	**text	**dynam
*part6	*part6	*part6	*part5	*part5	*part4	*part4	*part4	*part4	*part3	*part3	*part3	*part3	*part2	*part2	*part2	*part2	*part1	*part1	*part1	*part1
*staff7	*staff6	*	*staff5	*	*staff4	*staff4	*staff4	*	*staff3	*staff3	*staff3	*	*staff2	*staff2	*staff2	*	*staff1	*staff1	*staff1	*
*Iorgan	*Iempty	*	*Icello	*	*Ibass	*	*	*	*Itenor	*	*	*	*Isoprn	*	*	*	*Isoprn	*	*	*
*I"Organo.	*	*	*I"Violoncello	*	*I"Basso	*	*	*	*I"Tenore	*	*	*	*I"Soprano 2o	*	*	*	*I"Soprano 1o	*	*	*
*I'Org.	*	*	*I'V-c.	*	*I'B.	*	*	*	*I'T.	*	*	*	*I'S II	*	*	*	*I'S I	*	*	*
*clefF4	*clefG2	*	*clefF4	*	*clefF4	*	*	*	*clefC4	*	*	*	*clefG2	*	*	*	*clefG2	*	*	*
*k[f#c#g#]	*k[f#c#g#]	*	*k[f#c#g#]	*	*k[f#c#g#]	*	*	*	*k[f#c#g#]	*	*	*	*k[f#c#g#]	*	*	*	*k[f#c#g#]	*	*	*
*A:	*A:	*	*A:	*	*A:	*	*	*	*A:	*	*	*	*A:	*	*	*	*A:	*	*	*
*M2/4	*M2/4	*	*M2/4	*	*M2/4	*	*	*	*M2/4	*	*	*	*M2/4	*	*	*	*M2/4	*	*	*
*>[A,B,B,C]	*>[A,B,B,C]	*	*>[A,B,B,C]	*	*>[A,B,B,C]	*	*	*	*>[A,B,B,C]	*	*	*	*>[A,B,B,C]	*	*	*	*>[A,B,B,C]	*	*	*
*>A	*>A	*	*>A	*	*>A	*	*	*	*>A	*	*	*	*>A	*	*	*	*>A	*	*	*
=1	=1	=1	=1	=1	=1	=1	=1	=1	=1	=1	=1	=1	=1	=1	=1	=1	=1	=1	=1	=1
!	!	!	!	!	!LO:TX:a:t=P:problem:przyimki "w","z" pisane zazwyczaj bez spacji z następującym po nich słowem	!	!	!	!LO:TX:a:t=P:problem:przyimki "w","z" pisane zazwyczaj bez spacji z następującym po nich słowem	!	!	!	!LO:TX:a:t=P:problem:przyimki "w","z" pisane zazwyczaj bez spacji z następującym po nich słowem	!	!	!	!LO:TX:a:t=P:problem:przyimki "w","z" pisane zazwyczaj bez spacji z następującym po nich słowem	!	!	!
2r	(16eee\LL	.	2r	.	2r	.	.	.	2r	.	.	.	2r	.	.	.	2r	.	.	.
.	16ddd#X\	.	.	.	.	.	.	.	.	.	.	.	.	.	.	.	.	.	.	.
.	16eee\	.	.	.	.	.	.	.	.	.	.	.	.	.	.	.	.	.	.	.
.	16ddd#\JJ	.	.	.	.	.	.	.	.	.	.	.	.	.	.	.	.	.	.	.
.	16eee\LL	.	.	.	.	.	.	.	.	.	.	.	.	.	.	.	.	.	.	.
.	16ddd#\	.	.	.	.	.	.	.	.	.	.	.	.	.	.	.	.	.	.	.
.	16eee\	.	.	.	.	.	.	.	.	.	.	.	.	.	.	.	.	.	.	.
!	!	!	!	!	!	!	!	!LO:DY:b	!	!	!	!LO:DY:b	!	!	!	!LO:DY:b	!	!	!	!LO:DY:b
.	16ddd#\JJ)	.	.	.	.	.	.	p	.	.	.	p	.	.	.	p	.	.	.	p
=2!|:	=2!|:	=2!|:	=2!|:	=2!|:	=2!|:	=2!|:	=2!|:	=2!|:	=2!|:	=2!|:	=2!|:	=2!|:	=2!|:	=2!|:	=2!|:	=2!|:	=2!|:	=2!|:	=2!|:	=2!|:
*>B	*>B	*	*>B	*	*>B	*	*	*	*>B	*	*	*	*>B	*	*	*	*>B	*	*	*
2A\ [2c# 2e	8eee\L	.	2AA/ [2E	.	4A\	Dzie-	Nie-	.	4e\	Dzie-	Nie-	.	4a/	Dzie-	Nie-	.	4cc#\	Dzie-	Nie-	.
.	8ccc#\	.	.	.	.	.	.	.	.	.	.	.	.	.	.	.	.	.	.	.
.	8aa\	.	.	.	8A\	-ci	-chaj	.	8e\	-ci	-chaj	.	8a/	-ci	-chaj	.	8cc#\	-ci	-chaj	.
.	8ccc#\J	.	.	.	8A\	nie-	wChrys-	.	8e\	nie-	wChrys-	.	8a/	nie-	wChrys-	.	8cc#\	nie-	wChrys-	.
=3	=3	=3	=3	=3	=3	=3	=3	=3	=3	=3	=3	=3	=3	=3	=3	=3	=3	=3	=3	=3
2A\ 2c#_ 2e	8aa\L	.	2AA/ 2E_	.	4A\	-go-	-tu-	.	4e\	-go-	-tu-	.	4a/	-go-	-tu-	.	4cc#\	-go-	-tu-	.
.	8ee\	.	.	.	.	.	.	.	.	.	.	.	.	.	.	.	.	.	.	.
.	8cc#\	.	.	.	8A\	-dni	-sa	.	8e\	-dni	-sa	.	8a/	-dni	-sa	.	8cc#\	-dni	-sa	.
.	8ee\J	.	.	.	8A\	tak	i-	.	8e\	tak	i-	.	8a/	tak	i-	.	8cc#\	tak	i-	.
=4	=4	=4	=4	=4	=4	=4	=4	=4	=4	=4	=4	=4	=4	=4	=4	=4	=4	=4	=4	=4
2A\ 2c#_ 2e	8aa\L	.	2AA/ 2E_	.	4A\	wiel-	-dzie-	.	4e\	wiel-	-dzie-	.	4a/	wiel-	-dzie-	.	4cc#\	wiel-	-dzie-	.
.	8ccc#\	.	.	.	.	.	.	.	.	.	.	.	.	.	.	.	.	.	.	.
.	8eee\	.	.	.	8A\	-kiéj	-my	.	8e\	-kiéj	-my	.	8a/	-kiéj	-my	.	8cc#\	-kiéj	-my	.
.	8ccc#\J	.	.	.	8A\	O-	przy-	.	8e\	O-	przy-	.	8a/	O-	przy-	.	8cc#\	O-	przy-	.
=5	=5	=5	=5	=5	=5	=5	=5	=5	=5	=5	=5	=5	=5	=5	=5	=5	=5	=5	=5	=5
2A\ 2c#] 2e	16aa\LL	.	2AA/ 2E]	.	4A\	-fia-	-kła-	.	4e\	-fia-	-kła-	.	4a/	-fia-	-kła-	.	4cc#\	-fia-	-kła-	.
.	16ccc#\	.	.	.	.	.	.	.	.	.	.	.	.	.	.	.	.	.	.	.
.	16eee\	.	.	.	.	.	.	.	.	.	.	.	.	.	.	.	.	.	.	.
.	16ccc#\JJ	.	.	.	.	.	.	.	.	.	.	.	.	.	.	.	.	.	.	.
!	!LO:N:vis=4	!	!	!	!	!	!	!	!	!	!	!	!	!	!	!	!	!	!	!
.	8aa\	.	.	.	8A\	-ry	-dy.	.	8e\	-ry	-dy.	.	8a/	-ry	-dy	.	8cc#\	-ry	-dy	.
!	!LO:N:vis=4	!	!	!	!	!	!	!	!	!	!	!	!	!	!	!	!	!	!	!
.	8ccc#\	.	.	.	8r	.	.	.	8r	.	.	.	8r	.	.	.	8r	.	.	.
=6	=6	=6	=6	=6	=6	=6	=6	=6	=6	=6	=6	=6	=6	=6	=6	=6	=6	=6	=6	=6
2G#\ [2c# 2e	8ddd\L	.	2GG#/	.	4G#\	ztwe-	Czy-	.	4e\	ztwe-	Czy-	.	4b/	ztwe-	Czy-	.	4dd\	ztwe-	Czy-	.
.	8bb\	.	.	.	.	.	.	.	.	.	.	.	.	.	.	.	.	.	.	.
.	8eee\	.	.	.	4G#\	-go	-li	.	4e\	-go	-li	.	4b/	-go	-li	.	4dd\	-go	-li	.
.	8ddd\J	.	.	.	.	.	.	.	.	.	.	.	.	.	.	.	.	.	.	.
=7	=7	=7	=7	=7	=7	=7	=7	=7	=7	=7	=7	=7	=7	=7	=7	=7	=7	=7	=7	=7
!!LO:LB:g=original
2A\ 2c#] 2e	8ccc#\L	.	2AA/	.	4A\	sto-	wszczę-	.	4e\	sto-	wszczę-	.	4a/	sto-	wszczę-	.	4cc#\	sto-	wszczę-	.
.	8eee\	.	.	.	.	.	.	.	.	.	.	.	.	.	.	.	.	.	.	.
.	8ccc#\	.	.	.	4A\	-łu	-śćiu	.	4e\	-łu	-śćiu	.	4a/	-łu	-śćiu	.	4cc#\	-łu	-śćiu	.
.	8aa\J	.	.	.	.	.	.	.	.	.	.	.	.	.	.	.	.	.	.	.
=8	=8	=8	=8	=8	=8	=8	=8	=8	=8	=8	=8	=8	=8	=8	=8	=8	=8	=8	=8	=8
*^	*	*	*	*	*	*	*	*	*	*	*	*	*	*	*	*	*	*	*	*
[2e/	4G#\ 4B	8bb\L	.	4GG#/	.	4G#\	da-	czy	.	4e\	da-	czy	.	4b\	da-	czy	.	4dd\	da-	czy	.
.	.	16eee\L	.	.	.	.	.	.	.	.	.	.	.	.	.	.	.	.	.	.	.
.	.	16ddd\JJ	.	.	.	.	.	.	.	.	.	.	.	.	.	.	.	.	.	.	.
.	4A\ 4c#	8ccc#\L	.	4AA/	.	4A\	-ry	wnie-	.	4e\	-ry	wnie-	.	4a/	-ry	wnie-	.	4cc#\	-ry	w nie-	.
.	.	16aa\L	.	.	.	.	.	.	.	.	.	.	.	.	.	.	.	.	.	.	.
.	.	16bb\JJ	.	.	.	.	.	.	.	.	.	.	.	.	.	.	.	.	.	.	.
=9	=9	=9	=9	=9	=9	=9	=9	=9	=9	=9	=9	=9	=9	=9	=9	=9	=9	=9	=9	=9	=9
2e_	2E\ 2G# 2B	16bb\LL	.	2EE/	.	4E\	bio-	-do-	.	4e\	bio-	-do-	.	4g#/	bio-	-do-	.	4b\	bio-	-do-	.
.	.	16aa\	.	.	.	.	.	.	.	.	.	.	.	.	.	.	.	.	.	.	.
.	.	16gg#\	.	.	.	.	.	.	.	.	.	.	.	.	.	.	.	.	.	.	.
.	.	16ff#\JJ	.	.	.	.	.	.	.	.	.	.	.	.	.	.	.	.	.	.	.
!	!	!LO:N:vis=4	!	!	!	!	!	!	!	!	!	!	!	!	!	!	!	!	!	!	!
.	.	8ee\	.	.	.	8E\	-rą	-li	.	8e\	-rą	-li	.	8g#/	-rą	-li	.	8b\	-rą	-li	.
.	.	16eee\LL	.	.	.	8r	.	.	.	8r	.	.	.	8r	.	.	.	8r	.	.	.
.	.	16ddd#X\JJ	.	.	.	.	.	.	.	.	.	.	.	.	.	.	.	.	.	.	.
=10	=10	=10	=10	=10	=10	=10	=10	=10	=10	=10	=10	=10	=10	=10	=10	=10	=10	=10	=10	=10	=10
2c# 2e]	2A\	8eee\L	.	2AA/ 2E	.	4A\	Rę-	On	.	4e\	Rę-	On	.	4a/	Rę-	On	.	4cc#\	Rę-	On	.
.	.	8ccc#\	.	.	.	.	.	.	.	.	.	.	.	.	.	.	.	.	.	.	.
.	.	8aa\	.	.	.	8A\	-ce	nam	.	8e\	-ce	nam	.	8a/	-ce	nam	.	8cc#\	-ce	nam	.
.	.	8ccc#\J	.	.	.	8A\	do	po-	.	8e\	do	po-	.	8a/	do	po-	.	8cc#\	do	po-	.
*v	*v	*	*	*	*	*	*	*	*	*	*	*	*	*	*	*	*	*	*	*	*
=11	=11	=11	=11	=11	=11	=11	=11	=11	=11	=11	=11	=11	=11	=11	=11	=11	=11	=11	=11	=11
2A\ 2c# 2e	8aa\L	.	2AA/ 2E	.	4A\	Oy-	-ka-	.	4e\	Oy-	-ka-	.	4a/	Oy-	-ka-	.	4cc#\	Oy-	-ka-	.
.	8ee\	.	.	.	.	.	.	.	.	.	.	.	.	.	.	.	.	.	.	.
.	8cc#\	.	.	.	8A\	-ca	-zał	.	8e\	-ca	-zał	.	8a/	-ca	-zał	.	8cc#\	-ca	-zał	.
.	8ee\J	.	.	.	8A\	u-	i	.	8e\	u-	i	.	8a/	u-	i	.	8cc#\	u-	i	.
=12	=12	=12	=12	=12	=12	=12	=12	=12	=12	=12	=12	=12	=12	=12	=12	=12	=12	=12	=12	=12
2A\ 2c# 2e	8aa\L	.	2AA/ 2E	.	4A\	-no-	wzo-	.	4e\	-no-	wzo-	.	4a/	-no-	wzo-	.	4cc#\	-no-	wzo-	.
.	8ccc#\	.	.	.	.	.	.	.	.	.	.	.	.	.	.	.	.	.	.	.
.	8eee\	.	.	.	8A\	-szą	-ry	.	8e\	-szą	-ry	.	8a/	-szą	-ry	.	8cc#\	-szą	-ry	.
.	8ccc#\J	.	.	.	8A\	po	i	.	8e\	po	i	.	8a/	po	i	.	8cc#\	po	i	.
=13	=13	=13	=13	=13	=13	=13	=13	=13	=13	=13	=13	=13	=13	=13	=13	=13	=13	=13	=13	=13
!!LO:PB:g=original
2G#\ 2B 2e	16bb\LL	.	2GG#/	.	4G#\	da-	sła-	.	4e\	da-	sła-	.	4b\	da-	sła-	.	4b\	da-	sła-	.
.	16ccc#\	.	.	.	.	.	.	.	.	.	.	.	.	.	.	.	.	.	.	.
.	16ddd#X\	.	.	.	.	.	.	.	.	.	.	.	.	.	.	.	.	.	.	.
.	16eee\JJ	.	.	.	.	.	.	.	.	.	.	.	.	.	.	.	.	.	.	.
.	8bb\	.	.	.	8G#\	-ry	-dy	.	8e\	-ry	-dy	.	8b\	-ry	-dy	.	8b\	-ry	-dy	.
.	8r	.	.	.	8r	.	.	.	8r	.	.	.	8r	.	.	.	8r	.	.	.
=14	=14	=14	=14	=14	=14	=14	=14	=14	=14	=14	=14	=14	=14	=14	=14	=14	=14	=14	=14	=14
2F#\ 2A 2B	4.ddd#Xtt\	.	2FF#/	.	4F#\	i	iak	.	4A\	i	iak	.	4b\	i	iak	.	4dd#X\	i	iak	.
.	.	.	.	.	4F#\	zpo-	żyć	.	4A\	zpo-	żyć	.	4b\	zpo-	żyć	.	4dd#\	zpo-	żyć	.
.	16ccc#\LL	.	.	.	.	.	.	.	.	.	.	.	.	.	.	.	.	.	.	.
.	16ddd#\JJ	.	.	.	.	.	.	.	.	.	.	.	.	.	.	.	.	.	.	.
=15	=15	=15	=15	=15	=15	=15	=15	=15	=15	=15	=15	=15	=15	=15	=15	=15	=15	=15	=15	=15
*^	*	*	*	*	*	*	*	*	*	*	*	*	*	*	*	*	*	*	*	*
4E\ 4G# 4B	4ryy	8eee\L	.	4EE/	.	4E\	-ko-	we-	.	4G#/	-ko-	we-	.	4b\	-ko-	we-	.	4ee\	-ko-	we-	.
.	.	8bb\J	.	.	.	.	.	.	.	.	.	.	.	.	.	.	.	.	.	.	.
!LO:TX:a:t=P:problem:ćwierćnuty pod drugą, a nie pierwszą szesnastką	!	!	!	!	!	!	!	!	!	!	!	!	!	!	!	!	!	!	!	!	!
4A\ 4c#	4e>\	16ccc#\LL	.	4AA/	.	4AA/	-rą	-dług	.	[4e\	-rą	-dług	.	4a/	-rą	-dług	.	4cc#\	-rą	-dług	.
.	.	16eee\	.	.	.	.	.	.	.	.	.	.	.	.	.	.	.	.	.	.	.
.	.	16ccc#\	.	.	.	.	.	.	.	.	.	.	.	.	.	.	.	.	.	.	.
.	.	16aa\JJ	.	.	.	.	.	.	.	.	.	.	.	.	.	.	.	.	.	.	.
=16	=16	=16	=16	=16	=16	=16	=16	=16	=16	=16	=16	=16	=16	=16	=16	=16	=16	=16	=16	=16	=16
*	*^	*	*	*	*	*	*	*	*	*	*	*	*	*	*	*	*	*	*	*	*
4B\	2B\	4e>\ 4g#>	8gg#\L	.	2BB/	.	4BB/	i	Oy-	.	4e\]	i	Oy-	.	4g#/	i	Oy-	.	4b/	i	Oy-	.
.	.	.	16ccc#\L	.	.	.	.	.	.	.	.	.	.	.	.	.	.	.	.	.	.	.
.	.	.	16bb\JJ	.	.	.	.	.	.	.	.	.	.	.	.	.	.	.	.	.	.	.
!	!	!	!	!	!	!	!	!	!	!	!LO:SIC:s=4d#:v	!	!	!	!	!	!	!	!	!	!	!
4ryy	.	4d#X>\ 4a>	8ff#\L	.	.	.	4BB/	zuf-	-ca	.	4d\	z uf-	-ca	.	4f#/	zuf-	-ca	.	4a/	z uf-	-ca	.
.	.	.	16ccc#\L	.	.	.	.	.	.	.	.	.	.	.	.	.	.	.	.	.	.	.
.	.	.	16bb\JJ	.	.	.	.	.	.	.	.	.	.	.	.	.	.	.	.	.	.	.
*	*v	*v	*	*	*	*	*	*	*	*	*	*	*	*	*	*	*	*	*	*	*	*
*v	*v	*	*	*	*	*	*	*	*	*	*	*	*	*	*	*	*	*	*	*	*
=17	=17	=17	=17	=17	=17	=17	=17	=17	=17	=17	=17	=17	=17	=17	=17	=17	=17	=17	=17	=17
4.e>\ 4.g#>	(16gg#\LL	.	4.EE/	.	4E\	-no-	wo-	.	4e\	-no-	wo-	.	4e/	-no-	wo-	.	4g#/	-no-	wo-	.
.	16ee\	.	.	.	.	.	.	.	.	.	.	.	.	.	.	.	.	.	.	.
.	16gg#\)	.	.	.	.	.	.	.	.	.	.	.	.	.	.	.	.	.	.	.
.	16bb\JJ	.	.	.	.	.	.	.	.	.	.	.	.	.	.	.	.	.	.	.
.	8gg#\L	.	.	.	8E\	-śćią	-li	.	8e\	-śćią	-li	.	8e/	-śćią	-li	.	8g#/	-śćią	-li	.
8G#\ 8B	8bb\J	.	8G#\	.	8r	.	.	.	8r	.	.	.	8r	.	.	.	8r	.	.	.
=18	=18	=18	=18	=18	=18	=18	=18	=18	=18	=18	=18	=18	=18	=18	=18	=18	=18	=18	=18	=18
2F#\ 2A 2B	4.ddd#Xtt\	.	2F#\	.	4F#\	i	iak	.	4B\	i	iak	.	4a/	i	iak	.	4dd#X\	i	iak	.
.	.	.	.	.	4F#\	zpo-	żyć	.	4B\	zpo-	żyć	.	4a/	z po-	żyć	.	4dd#\	zpo-	żyć	.
!	!LO:N:vis=32	!	!	!	!	!	!	!	!	!	!	!	!	!	!	!	!	!	!	!
.	16ccc#\LL	.	.	.	.	.	.	.	.	.	.	.	.	.	.	.	.	.	.	.
!	!LO:N:vis=32	!	!	!	!	!	!	!	!	!	!	!	!	!	!	!	!	!	!	!
.	16ddd#\JJ	.	.	.	.	.	.	.	.	.	.	.	.	.	.	.	.	.	.	.
=19	=19	=19	=19	=19	=19	=19	=19	=19	=19	=19	=19	=19	=19	=19	=19	=19	=19	=19	=19	=19
4E\ 4G# 4B	8eee\L	.	4E\	.	4E\	-ko-	we-	.	4B\	-ko-	we-	.	4g#/	-ko-	we-	.	4ee\	-ko-	we-	.
.	8bb\J	.	.	.	.	.	.	.	.	.	.	.	.	.	.	.	.	.	.	.
4AA/ 4C# 4E	16ccc#\LL	.	4AA/	.	4AA/	-rą	-dług	.	4c#\	-rą	-dług	.	4a/	-rą	-dług	.	4cc#\	-rą	-dług	.
.	16eee\	.	.	.	.	.	.	.	.	.	.	.	.	.	.	.	.	.	.	.
.	16bb\	.	.	.	.	.	.	.	.	.	.	.	.	.	.	.	.	.	.	.
.	16aa\JJ	.	.	.	.	.	.	.	.	.	.	.	.	.	.	.	.	.	.	.
=20	=20	=20	=20	=20	=20	=20	=20	=20	=20	=20	=20	=20	=20	=20	=20	=20	=20	=20	=20	=20
!!LO:LB:g=original
*^	*	*	*	*	*	*	*	*	*	*	*	*	*	*	*	*	*	*	*	*
*	*^	*	*	*	*	*	*	*	*	*	*	*	*	*	*	*	*	*	*	*	*
!	!	!	!	!	!	!	!	!	!	!	!	!	!	!	!	!	!	!	!LO:SIC:s=4b:v	!	!	!
4E/ 4G#	2B/	2BB\	8gg#\L	.	2BB/	.	4BB/	i	Oy-	.	4G#/	i	Oy-	.	4g#/	i	Oy-	.	4a/	i	Oy-	.
.	.	.	16ccc#\L	.	.	.	.	.	.	.	.	.	.	.	.	.	.	.	.	.	.	.
.	.	.	16bb\JJ	.	.	.	.	.	.	.	.	.	.	.	.	.	.	.	.	.	.	.
(4F#/ 4A	.	.	8dd#X\L	.	.	.	4BB/	zuf-	-ca	.	4A/	zuf-	-ca	.	4f#/	zuf-	-ca	.	4dd#X\	zuf-	-ca	.
.	.	.	16ccc#\L	.	.	.	.	.	.	.	.	.	.	.	.	.	.	.	.	.	.	.
.	.	.	16bb\JJ	.	.	.	.	.	.	.	.	.	.	.	.	.	.	.	.	.	.	.
*	*v	*v	*	*	*	*	*	*	*	*	*	*	*	*	*	*	*	*	*	*	*	*
=21	=21	=21	=21	=21	=21	=21	=21	=21	=21	=21	=21	=21	=21	=21	=21	=21	=21	=21	=21	=21	=21
4.E\	4.G#/) 4.B	(16gg#\LL	.	4.EE/ 4.E	.	4E\	-no-	wo-	.	4G#/	-no-	wo-	.	4e/	-no-	wo-	.	4ee\	-no-	wo-	.
.	.	16ee\	.	.	.	.	.	.	.	.	.	.	.	.	.	.	.	.	.	.	.
.	.	16gg#\	.	.	.	.	.	.	.	.	.	.	.	.	.	.	.	.	.	.	.
.	.	16bb\JJ)	.	.	.	.	.	.	.	.	.	.	.	.	.	.	.	.	.	.	.
.	.	(16eee\LL	.	.	.	8E\	-śćią	-li	.	8G#/	śćią	-li	.	8e/	-śćią	-li	.	8ee\	-śćią	-li	.
.	.	16ddd#X\	.	.	.	.	.	.	.	.	.	.	.	.	.	.	.	.	.	.	.
8r	8ryy	16eee\	.	8r	.	8r	.	.	.	8r	.	.	.	8r	.	.	.	8r	.	.	.
.	.	16ddd#\JJ)	.	.	.	.	.	.	.	.	.	.	.	.	.	.	.	.	.	.	.
*v	*v	*	*	*	*	*	*	*	*	*	*	*	*	*	*	*	*	*	*	*	*
=22	=22	=22	=22	=22	=22	=22	=22	=22	=22	=22	=22	=22	=22	=22	=22	=22	=22	=22	=22	=22
[2A\ [2c# 2e	8eee\L	.	2AA/ 2E	.	4A\	Pa-	Bo-	.	4e\	Pa-	Bo-	.	4a/	Pa-	Bo-	.	4cc#\	Pa-	Bo-	.
.	8ccc#\	.	.	.	.	.	.	.	.	.	.	.	.	.	.	.	.	.	.	.
.	8aa\	.	.	.	8A\	-nem	-że	.	8e\	-nem	-że	.	8a/	-nem	-że	.	8cc#\	-nem	-że	.
.	8ccc#\J	.	.	.	8A\	ty	ba-	.	8e\	ty	ba-	.	8a/	ty	ba-	.	8cc#\	ty	ba-	.
=23	=23	=23	=23	=23	=23	=23	=23	=23	=23	=23	=23	=23	=23	=23	=23	=23	=23	=23	=23	=23
2A\_ 2c#_ 2e	8aa\L	.	2AA/ 2E	.	4A\	na-	-ran-	.	4e\	na-	-ran-	.	4a/	na-	-ran-	.	4cc#\	na-	-ran-	.
.	8ee\	.	.	.	.	.	.	.	.	.	.	.	.	.	.	.	.	.	.	.
.	8cc#\	.	.	.	8A\	-szym	-ku	.	8e\	-szym	-ku	.	8a/	-szym	-ku	.	8cc#\	-szym	-ku	.
.	8ee\J	.	.	.	8A\	i	cóś	.	8e\	i	cóś	.	8a/	i	cóś	.	8cc#\	i	cóś	.
=24	=24	=24	=24	=24	=24	=24	=24	=24	=24	=24	=24	=24	=24	=24	=24	=24	=24	=24	=24	=24
2A\_ 2c#_ 2e	8aa\L	.	2AA/ 2E	.	4A\	Oy-	zma-	.	4e\	Oy-	zma-	.	4a/	Oy-	zma-	.	4cc#\	Oy-	zma-	.
.	8ccc#\	.	.	.	.	.	.	.	.	.	.	.	.	.	.	.	.	.	.	.
.	8eee\	.	.	.	8A\	-cem	-zał	.	8e\	-cem	-zał	.	8a/	-cem	-zał	.	8cc#\	-cem	-zał	.
.	8ccc#\J	.	.	.	8A\	na	grzech	.	8e\	na	grzech	.	8a/	na	grzech	.	8cc#\	na	grzech	.
=25	=25	=25	=25	=25	=25	=25	=25	=25	=25	=25	=25	=25	=25	=25	=25	=25	=25	=25	=25	=25
!LO:S:s=1:note:problem:note-level slur	!	!	!	!	!	!	!	!	!	!	!	!	!	!	!	!	!	!	!	!
!LO:S:s=2:note:problem:note-level slur	!	!	!	!	!	!	!	!	!	!	!	!	!	!	!	!	!	!	!	!
(<2A\] &(>2c#] 2e	16aa\LL	.	2AA/ 2E	.	4A\	wie-	Swia-	.	4e\	wie-	Swia-	.	4a/	wie-	Swia-	.	4cc#\	wie-	Swia-	.
.	16ccc#\	.	.	.	.	.	.	.	.	.	.	.	.	.	.	.	.	.	.	.
.	16eee\	.	.	.	.	.	.	.	.	.	.	.	.	.	.	.	.	.	.	.
.	16ccc#\JJ	.	.	.	.	.	.	.	.	.	.	.	.	.	.	.	.	.	.	.
.	8aa\	.	.	.	8A\	-ki	-ta	.	8e\	-ki	-ta	.	8a/	-ki	-ta	.	8cc#\	-ki	-ta	.
.	8ccc#\	.	.	.	8r	.	.	.	8r	.	.	.	8r	.	.	.	8r	.	.	.
=26	=26	=26	=26	=26	=26	=26	=26	=26	=26	=26	=26	=26	=26	=26	=26	=26	=26	=26	=26	=26
2G#\) 2B&) 2e	8ddd\L	.	2GG#/	.	4G#\	cho-	A-	.	4e\	cho-	A-	.	4b\	cho-	A-	.	4dd\	cho-	A-	.
.	8bb\	.	.	.	.	.	.	.	.	.	.	.	.	.	.	.	.	.	.	.
.	8eee\	.	.	.	4G#\	-ciaż	-by	.	4e\	-ciaż	-by	.	4b\	-ciaż	-by	.	4dd\	-ciaż	-by	.
.	8ddd\J	.	.	.	.	.	.	.	.	.	.	.	.	.	.	.	.	.	.	.
=27	=27	=27	=27	=27	=27	=27	=27	=27	=27	=27	=27	=27	=27	=27	=27	=27	=27	=27	=27	=27
!!LO:PB:g=original
2A\ 2c# 2e	8ccc#\L	.	2AA/	.	4A\	sła-	lud	.	4e\	sła-	lud	.	4a/	sła-	lud	.	4cc#\	sła-	lud	.
.	8eee\	.	.	.	.	.	.	.	.	.	.	.	.	.	.	.	.	.	.	.
.	8ccc#\	.	.	.	4A\	-bi	twóy	.	4e\	-bi	twóy	.	4a/	-bi	twóy	.	4cc#\	-bi	twóy	.
.	8aa\J	.	.	.	.	.	.	.	.	.	.	.	.	.	.	.	.	.	.	.
=28	=28	=28	=28	=28	=28	=28	=28	=28	=28	=28	=28	=28	=28	=28	=28	=28	=28	=28	=28	=28
*^	*	*	*	*	*	*	*	*	*	*	*	*	*	*	*	*	*	*	*	*
2e/	4G#\ 4B	8bb\L	.	4GG#/	.	4G#\	po-	żył	.	4e\	po-	żył	.	4b/	po-	żył	.	4dd\	po-	żył	.
.	.	16eee\L	.	.	.	.	.	.	.	.	.	.	.	.	.	.	.	.	.	.	.
.	.	16ddd\JJ	.	.	.	.	.	.	.	.	.	.	.	.	.	.	.	.	.	.	.
.	4A\ 4c#	8ccc#\L	.	4AA/	.	4A\	-błą-	bez-	.	4e\	-błą-	bez-	.	4a/	-błą-	bez-	.	4cc#\	-błą-	bez-	.
.	.	16aa\L	.	.	.	.	.	.	.	.	.	.	.	.	.	.	.	.	.	.	.
.	.	16ccc#\JJ	.	.	.	.	.	.	.	.	.	.	.	.	.	.	.	.	.	.	.
*v	*v	*	*	*	*	*	*	*	*	*	*	*	*	*	*	*	*	*	*	*	*
=29	=29	=29	=29	=29	=29	=29	=29	=29	=29	=29	=29	=29	=29	=29	=29	=29	=29	=29	=29	=29
2E\ 2G# 2B 2e	16bb\LL	.	4EE/	.	4E\	-dzie-	-pie-	.	4e\	-dzie-	-pie-	.	4g#/	-dzie-	-pie-	.	4b\	-dzie-	-pie-	.
.	16aa\	.	.	.	.	.	.	.	.	.	.	.	.	.	.	.	.	.	.	.
.	16gg#\	.	.	.	.	.	.	.	.	.	.	.	.	.	.	.	.	.	.	.
.	16ff#\JJ	.	.	.	.	.	.	.	.	.	.	.	.	.	.	.	.	.	.	.
.	8ee\	.	8ryy	.	8E\	-my	-czny	.	8e\	-my	-czny	.	8g#/	-my	-czny	.	8b\	-my	-czny	.
.	(16eee\LL	.	16e\LL	.	8r	.	.	.	8r	.	.	.	8r	.	.	.	8r	.	.	.
.	16ddd#X\JJ)	.	16d#X\JJ	.	.	.	.	.	.	.	.	.	.	.	.	.	.	.	.	.
=30	=30	=30	=30	=30	=30	=30	=30	=30	=30	=30	=30	=30	=30	=30	=30	=30	=30	=30	=30	=30
[2A\ [2c# 2e	8eee\L	.	8e\L	.	4A\	prze-	U-	.	4e\	prze-	U-	.	4a/	prze-	U-	.	4cc#\	prze-	U-	.
.	8ccc#\	.	(8c#\	.	.	.	.	.	.	.	.	.	.	.	.	.	.	.	.	.
.	8aa\	.	8A\	.	8A\	-cież	-twierdz	.	8e\	-cież	-twierdz	.	8a/	-cież	-twierdz	.	8cc#\	-cież	-twierdz	.
.	8ccc#\J	.	8c#\J	.	8A\	z pod	wnas	.	8e\	z pod	wnas	.	8a/	z pod	wnas	.	8cc#\	z pod	wnas	.
=31	=31	=31	=31	=31	=31	=31	=31	=31	=31	=31	=31	=31	=31	=31	=31	=31	=31	=31	=31	=31
2A\_ 2c#_ 2e	8aa\L	.	8A\L	.	4A\	two-	wia-	.	4e\	two-	wia-	.	4a/	two-	wia-	.	4cc#\	two-	wia-	.
.	8ee\	.	8E\)	.	.	.	.	.	.	.	.	.	.	.	.	.	.	.	.	.
.	8cc#\	.	(8C#\	.	8A\	-iéy	-rę	.	8e\	-iéy	-rę	.	8a/	-iéy	-rę	.	8cc#\	-iéy	-rę	.
.	8ee\J	.	8E\J	.	8A\	nie	i	.	8e\	nie	i	.	8a/	nie	i	.	8cc#\	nie	i	.
=32	=32	=32	=32	=32	=32	=32	=32	=32	=32	=32	=32	=32	=32	=32	=32	=32	=32	=32	=32	=32
2A\_ 2c#_ 2e	8aa\L	.	8A\L	.	4A\	wyi-	mi-	.	4e\	wyi-	mi-	.	4a/	wyi-	mi-	.	4cc#\	wyi-	mi-	.
.	8ccc#\	.	8c#\	.	.	.	.	.	.	.	.	.	.	.	.	.	.	.	.	.
.	8eee\	.	8e\	.	8A\	-dziem	-łość	.	8e\	-dziem	-łość	.	8a/	-dziem	-łość	.	8cc#\	-dziem	-łość	.
.	8ccc#\J	.	8c#\J)	.	8A\	o-	dla	.	8e\	o-	dla	.	8a/	o-	dla	.	8cc#\	o-	dla	.
=33	=33	=33	=33	=33	=33	=33	=33	=33	=33	=33	=33	=33	=33	=33	=33	=33	=33	=33	=33	=33
!!LO:LB:g=original
2A\_ 2c#_ 2e	16aa\LL	.	16A\LL	.	4A\	-pie-	Bra-	.	4e\	-pie-	Bra-	.	4a\	-pie-	Bra-	.	4cc#\	-pie-	Bra-	.
.	16ccc#\	.	16c#\	.	.	.	.	.	.	.	.	.	.	.	.	.	.	.	.	.
.	16eee\	.	16e\	.	.	.	.	.	.	.	.	.	.	.	.	.	.	.	.	.
.	16ccc#\JJ	.	16c#\JJ	.	.	.	.	.	.	.	.	.	.	.	.	.	.	.	.	.
.	16aa\LL	.	16A\LL	.	8A\	-ki	-ta	.	8e\	-ki	-ta	.	8a\	-ki	-ta	.	8cc#\	-ki	-ta	.
.	16gg#\	.	16G#\	.	.	.	.	.	.	.	.	.	.	.	.	.	.	.	.	.
.	16aa\	.	16A\	.	8r	.	.	.	8r	.	.	.	8r	.	.	.	8r	.	.	.
.	16bb\JJ	.	16B\JJ	.	.	.	.	.	.	.	.	.	.	.	.	.	.	.	.	.
=34	=34	=34	=34	=34	=34	=34	=34	=34	=34	=34	=34	=34	=34	=34	=34	=34	=34	=34	=34	=34
2A\] 2c#] 2e	8ccc#\L	.	8c#\L	.	4A\	gdy	daj	.	4e\	gdy	daj	.	4a/	gdy	daj	.	4cc#\	gdy	daj	.
.	8aa\	.	8A\	.	.	.	.	.	.	.	.	.	.	.	.	.	.	.	.	.
.	8ee\	.	8E\	.	4A\	Cię	nam	.	4e\	Cię	nam	.	4a/	Cię	nam	.	4cc#\	Cię	nam	.
.	8ccc#\J	.	8c#\J	.	.	.	.	.	.	.	.	.	.	.	.	.	.	.	.	.
=35	=35	=35	=35	=35	=35	=35	=35	=35	=35	=35	=35	=35	=35	=35	=35	=35	=35	=35	=35	=35
*^	*	*	*	*	*	*	*	*	*	*	*	*	*	*	*	*	*	*	*	*
4.B/	2D\ 2F#	8ddd\L	.	8d\L	.	4.A\	po-	po-	.	4.f#\	po-	po-	.	4.a/	po-	po-	.	4.dd\	po-	po-	.
.	.	8aa\	.	8A\	.	.	.	.	.	.	.	.	.	.	.	.	.	.	.	.	.
.	.	8ff#\	.	8F#\	.	.	.	.	.	.	.	.	.	.	.	.	.	.	.	.	.
8B/	.	8ddd\J	.	8d\J	.	8A\	-sród	-koy	.	8d\	-sród	-koy	.	8f#/	-sród	-koy	.	8b\	-sród	-koy	.
=36	=36	=36	=36	=36	=36	=36	=36	=36	=36	=36	=36	=36	=36	=36	=36	=36	=36	=36	=36	=36	=36
4A/ 4c#	2E\	8ccc#\L	.	8c#\L	.	4D/	nas	po-	.	4c#\	nas	po-	.	4e/	nas	po-	.	4a/	nas	po-	.
.	.	8aa\	.	16f#\L	.	.	.	.	.	.	.	.	.	.	.	.	.	.	.	.	.
.	.	.	.	16e\JJ	.	.	.	.	.	.	.	.	.	.	.	.	.	.	.	.	.
4B/ 4d	.	8bb\	.	8G#\L	.	4D/	czu-	-koy	.	4d\	czu-	-koy	.	4g#/	czu-	-koy	.	4b/	czu-	-koy	.
.	.	8gg#\J	.	16c#\L	.	.	.	.	.	.	.	.	.	.	.	.	.	.	.	.	.
.	.	.	.	16B\JJ	.	.	.	.	.	.	.	.	.	.	.	.	.	.	.	.	.
*v	*v	*	*	*	*	*	*	*	*	*	*	*	*	*	*	*	*	*	*	*	*
=37	=37	=37	=37	=37	=37	=37	=37	=37	=37	=37	=37	=37	=37	=37	=37	=37	=37	=37	=37	=37
4.A\ 4.c#	16aa\LL	.	16A\LL	.	4E\	-ie-	wie-	.	4c#\	-ie-	wie-	.	4a/	-ie-	wie-	.	4cc#\	-ie-	wie-	.
.	16ccc#\	.	16c#\	.	.	.	.	.	.	.	.	.	.	.	.	.	.	.	.	.
.	16eee\	.	16e\	.	.	.	.	.	.	.	.	.	.	.	.	.	.	.	.	.
.	16ccc#\JJ	.	16c#\JJ	.	.	.	.	.	.	.	.	.	.	.	.	.	.	.	.	.
.	16aa\LL	.	16A\LL	.	8E\	-my	-czny	.	8A\	-my	-czny	.	8a/	-my	-czny	.	8cc#\	-my	-czny	.
.	16gg#\	.	16G#\	.	.	.	.	.	.	.	.	.	.	.	.	.	.	.	.	.
8r	16aa\	.	16A\	.	8r	.	.	.	8r	.	.	.	8r	.	.	.	8r	.	.	.
.	16bb\JJ	.	16B\JJ	.	.	.	.	.	.	.	.	.	.	.	.	.	.	.	.	.
=38	=38	=38	=38	=38	=38	=38	=38	=38	=38	=38	=38	=38	=38	=38	=38	=38	=38	=38	=38	=38
2A\ 2c# 2e	8ccc#\L	.	8c#\L	.	4A\	gdy	daj	.	4e\	gdy	daj	.	4a/	gdy	daj	.	4cc#\	gdy	daj	.
.	8aa\	.	8A\	.	.	.	.	.	.	.	.	.	.	.	.	.	.	.	.	.
.	8ee\	.	8E\	.	4A\	Cię	nam	.	4e\	Cię	nam	.	4a/	Cię	nam	.	4cc#\	Cię	nam	.
.	8ccc#\J	.	8c#\J	.	.	.	.	.	.	.	.	.	.	.	.	.	.	.	.	.
=39	=39	=39	=39	=39	=39	=39	=39	=39	=39	=39	=39	=39	=39	=39	=39	=39	=39	=39	=39	=39
*^	*	*	*	*	*	*	*	*	*	*	*	*	*	*	*	*	*	*	*	*
4.A/	2D\ 2F#	8ddd\L	.	8d\L	.	4.A\	po-	po-	.	4.f#\	po-	po-	.	4.a/	po-	po-	.	4.dd\	po-	po-	.
.	.	8aa\	.	8A\	.	.	.	.	.	.	.	.	.	.	.	.	.	.	.	.	.
.	.	8ff#\	.	8E\	.	.	.	.	.	.	.	.	.	.	.	.	.	.	.	.	.
8B/	.	8ddd\J	.	8d\J	.	8A\	-sród	-koy	.	8d\	-sród	-koy	.	8f#/	-sród	-koy	.	8b\	-sród	-koy	.
=40	=40	=40	=40	=40	=40	=40	=40	=40	=40	=40	=40	=40	=40	=40	=40	=40	=40	=40	=40	=40	=40
!!LO:PB:g=original
!	!	!	!LO:HP:a	!	!	!	!	!	!	!	!	!	!	!	!	!	!	!	!	!	!
4A/ 4c#	2E\	8ccc#\L	>	8c#\L	.	4E\	nas	po-	.	4c#\	nas	po-	.	4e/	nas	po-	.	4a/	nas	po-	.
.	.	8aa\	.	16f#\L	.	.	.	.	.	.	.	.	.	.	.	.	.	.	.	.	.
.	.	.	.	16e\JJ	.	.	.	.	.	.	.	.	.	.	.	.	.	.	.	.	.
4B/ 4d	.	8bb\	.	8G#\L	.	4E\	czu-	-koy	.	4B\	czu-	-koy	.	4e/	czu-	-koy	.	4g#/	czu-	-koy	.
.	.	8gg#\J	.	16c#\L	.	.	.	.	.	.	.	.	.	.	.	.	.	.	.	.	.
.	.	.	.	16B\JJ	.	.	.	.	.	.	.	.	.	.	.	.	.	.	.	.	.
*v	*v	*	*	*	*	*	*	*	*	*	*	*	*	*	*	*	*	*	*	*	*
=41	=41	=41	=41	=41	=41	=41	=41	=41	=41	=41	=41	=41	=41	=41	=41	=41	=41	=41	=41	=41
4.A\ 4.c#	16aa\LL	.	(16A\LL	.	4A\	-ie-	wie-	.	4c#\	-ie-	wie-	.	4e/	-ie-	wie-	.	4a/	-ie-	wie-	.
.	16gg#\	.	16G#\	.	.	.	.	.	.	.	.	.	.	.	.	.	.	.	.	.
.	16aa\	.	16A\	.	.	.	.	.	.	.	.	.	.	.	.	.	.	.	.	.
.	16bb\JJ	.	16B\JJ	.	.	.	.	.	.	.	.	.	.	.	.	.	.	.	.	.
.	16ccc#\LL	]	16c#\LL	.	8A\	-my	-czny	.	8c#\	-my	-czny	.	8e/	-my	-czny	.	8a/	-my	-czny	.
.	16bb\	.	16B\	.	.	.	.	.	.	.	.	.	.	.	.	.	.	.	.	.
8r	16ccc#\	.	16c#\	.	8r	.	.	.	8r	.	.	.	8r	.	.	.	8r	.	.	.
.	16ddd#X\JJ	.	16d#X\JJ)	.	.	.	.	.	.	.	.	.	.	.	.	.	.	.	.	.
=42:|!	=42:|!	=42:|!	=42:|!	=42:|!	=42:|!	=42:|!	=42:|!	=42:|!	=42:|!	=42:|!	=42:|!	=42:|!	=42:|!	=42:|!	=42:|!	=42:|!	=42:|!	=42:|!	=42:|!	=42:|!
*>C	*>C	*	*>C	*	*>C	*	*	*	*>C	*	*	*	*>C	*	*	*	*>C	*	*	*
!	!LO:TX:a:Bi:t=perdando	!	!	!	!	!	!	!LO:DY:rj:z boku, na pięciolinii	!	!	!	!LO:DY:rj:z boku, na pięciolinii	!	!	!	!LO:DY:rj:z boku, na pięciolinii	!	!	!	!LO:DY:rj:z boku, na pięciolinii
2E\ 2A 2c#	8eee\L	.	8e\L	.	[2E\	.	po-	pp	[2e\	.	po-	pp	[2a/	.	po-	pp	[2cc#\	.	po-	pp
.	8ccc#\	.	8c#\	.	.	.	.	.	.	.	.	.	.	.	.	.	.	.	.	.
.	8aa\	.	8A\	.	.	.	.	.	.	.	.	.	.	.	.	.	.	.	.	.
.	8ccc#\J	.	8c#\J	.	.	.	.	.	.	.	.	.	.	.	.	.	.	.	.	.
=43	=43	=43	=43	=43	=43	=43	=43	=43	=43	=43	=43	=43	=43	=43	=43	=43	=43	=43	=43	=43
2E\ 2A 2c#	8aa\L	.	8A\L	.	4E\]	.	.	.	4e\]	.	.	.	4a/]	.	.	.	4cc#\]	.	.	.
.	(8ee\	.	8E\	.	.	.	.	.	.	.	.	.	.	.	.	.	.	.	.	.
.	8cc#\	.	8C#\	.	4E\	.	-koy	.	4e\	.	-koy	.	4a/	.	-koy	.	4cc#\	.	-koy	.
.	8ee\J)	.	8E\J	.	.	.	.	.	.	.	.	.	.	.	.	.	.	.	.	.
=44	=44	=44	=44	=44	=44	=44	=44	=44	=44	=44	=44	=44	=44	=44	=44	=44	=44	=44	=44	=44
2E\ 2A 2B	8aa\L	.	[2EE/	.	[2E\	.	.	.	[2e\	.	wie-	.	(<2a/	.	wie-	.	[2b\	.	wie-	.
.	(8ee\	.	.	.	.	.	.	.	.	.	.	.	.	.	.	.	.	.	.	.
.	8b\	.	.	.	.	.	.	.	.	.	.	.	.	.	.	.	.	.	.	.
.	8ee\J)	.	.	.	.	.	.	.	.	.	.	.	.	.	.	.	.	.	.	.
=45	=45	=45	=45	=45	=45	=45	=45	=45	=45	=45	=45	=45	=45	=45	=45	=45	=45	=45	=45	=45
2E\ 2G# 2B	8gg#\L	.	2EE/]	.	2E/]	.	.	.	4e\]	.	.	.	2g#/)	.	.	.	2b\]	.	.	.
.	8ee\	.	.	.	.	.	.	.	.	.	.	.	.	.	.	.	.	.	.	.
.	(8b\	.	.	.	.	.	.	.	8e\L	.	.	.	.	.	.	.	.	.	.	.
.	16ee\L	.	.	.	.	.	.	.	8d\J	.	.	.	.	.	.	.	.	.	.	.
.	16dd\JJ)	.	.	.	.	.	.	.	.	.	.	.	.	.	.	.	.	.	.	.
=46	=46	=46	=46	=46	=46	=46	=46	=46	=46	=46	=46	=46	=46	=46	=46	=46	=46	=46	=46	=46
2A\ 2c#	8aa\L	.	[2AA/	.	4.AA/	.	.	.	4.c#\	.	-czny.	.	4.e/	.	-czny.	.	4.a/	.	-czny.	.
.	(8ee\	.	.	.	.	.	.	.	.	.	.	.	.	.	.	.	.	.	.	.
.	8cc#\	.	.	.	.	.	.	.	.	.	.	.	.	.	.	.	.	.	.	.
.	8ee\J)	.	.	.	8r	.	.	.	8r	.	.	.	8r	.	.	.	8r	.	.	.
=47	=47	=47	=47	=47	=47	=47	=47	=47	=47	=47	=47	=47	=47	=47	=47	=47	=47	=47	=47	=47
!!LO:LB:g=original
2A\ 2c#	8cc#/L	.	4.AA/]	.	2r	.	.	.	2r	.	.	.	2r	.	.	.	2r	.	.	.
.	8a/	.	.	.	.	.	.	.	.	.	.	.	.	.	.	.	.	.	.	.
.	8e/	.	.	.	.	.	.	.	.	.	.	.	.	.	.	.	.	.	.	.
.	8a/J	.	8r	.	.	.	.	.	.	.	.	.	.	.	.	.	.	.	.	.
.	(16qqe/	.	.	.	.	.	.	.	.	.	.	.	.	.	.	.	.	.	.	.
=48	=48	=48	=48	=48	=48	=48	=48	=48	=48	=48	=48	=48	=48	=48	=48	=48	=48	=48	=48	=48
2AA\ 2E	8a/L)	.	2r	.	2r	.	.	.	2r	.	.	.	2r	.	.	.	2r	.	.	.
.	8e/	.	.	.	.	.	.	.	.	.	.	.	.	.	.	.	.	.	.	.
.	8c#/	.	.	.	.	.	.	.	.	.	.	.	.	.	.	.	.	.	.	.
.	8e/J	.	.	.	.	.	.	.	.	.	.	.	.	.	.	.	.	.	.	.
=49	=49	=49	=49	=49	=49	=49	=49	=49	=49	=49	=49	=49	=49	=49	=49	=49	=49	=49	=49	=49
.	16qqc#/LL	.	.	.	.	.	.	.	.	.	.	.	.	.	.	.	.	.	.	.
!	!LO:TX:a:Bi:t=ralentando	!	!LO:TX:a:Bi:t=ralentando	!	!	!	!	!	!	!	!	!	!	!	!	!	!	!	!	!
.	16qqA/JJ	.	.	.	.	.	.	.	.	.	.	.	.	.	.	.	.	.	.	.
4.AA\ 4.E	4.A/	.	2r	.	2r	.	.	.	2r	.	.	.	2r	.	.	.	2r	.	.	.
8r	8r	.	.	.	.	.	.	.	.	.	.	.	.	.	.	.	.	.	.	.
=50	=50	=50	=50	=50	=50	=50	=50	=50	=50	=50	=50	=50	=50	=50	=50	=50	=50	=50	=50	=50
!	!	!LO:DY:a:	!	!LO:DY:a:	!	!	!	!	!	!	!	!	!	!	!	!	!	!	!	!
2DD/ [2D	[2A/ [>2d 2f#	pp	[2A\	pp	2r	.	.	.	2r	.	.	.	2r	.	.	.	2r	.	.	.
!	!LO:TX:a:Bi:t=poco a poco	!	!	!	!	!	!	!	!	!	!	!	!	!	!	!	!	!	!	!
.	.	.	.	.	.	.	.	.	.	.	.	.	.	.	.	.	.	.	.	.
=51	=51	=51	=51	=51	=51	=51	=51	=51	=51	=51	=51	=51	=51	=51	=51	=51	=51	=51	=51	=51
2DD/ 2D]	4A/] 4d] 4f#	.	4A\]	.	2r	.	.	.	2r	.	.	.	2r	.	.	.	2r	.	.	.
.	4G#/ 4B 4d 4fn	.	4G#\	.	.	.	.	.	.	.	.	.	.	.	.	.	.	.	.	.
.	.	.	(16qqBB/	.	.	.	.	.	.	.	.	.	.	.	.	.	.	.	.	.
=52	=52	=52	=52	=52	=52	=52	=52	=52	=52	=52	=52	=52	=52	=52	=52	=52	=52	=52	=52	=52
!	!	!	!	!LO:DY:a	!	!	!	!	!	!	!	!	!	!	!	!	!	!	!	!
2AAA/ 2AA	[2A/ [>2c# [2e	.	8A\L)	pp	2r	.	.	.	2r	.	.	.	2r	.	.	.	2r	.	.	.
.	.	.	(>8E\	.	.	.	.	.	.	.	.	.	.	.	.	.	.	.	.	.
.	.	.	8C#\	.	.	.	.	.	.	.	.	.	.	.	.	.	.	.	.	.
.	.	.	8E\J	.	.	.	.	.	.	.	.	.	.	.	.	.	.	.	.	.
=53	=53	=53	=53	=53	=53	=53	=53	=53	=53	=53	=53	=53	=53	=53	=53	=53	=53	=53	=53	=53
4.CC#/ 4.AA	4.A/] 4.c#] 4.e]	.	4.AA/)	.	2r	.	.	.	2r	.	.	.	2r	.	.	.	2r	.	.	.
8r	8r	.	8r	.	.	.	.	.	.	.	.	.	.	.	.	.	.	.	.	.
==	==	==	==	==	==	==	==	==	==	==	==	==	==	==	==	==	==	==	==	==
*-	*-	*-	*-	*-	*-	*-	*-	*-	*-	*-	*-	*-	*-	*-	*-	*-	*-	*-	*-	*-
!!!system-decoration: [s1,s2,s3,s4,s5{(s6,s7)}]
!!!RDF**kern: > = above
!!!RDF**kern: < = below
!!!AIN: 1 bass 1 cello 1 organ 2 soprn 1 tenor
!!!ENC: Kamil Watkowski
!!!END: 2020-03-08
!!!ENC: Marta Lawrence
!!!END: 2020-04-04
